X: 96
T: Shuijing jiubei The cristal cup
%%abc-version 2.0
%%abcx-abcm2ps-target-version 5.9.1 (29 Sep 2008)
%%abc-creator hum2abc beta
%%abcx-conversion-date 2013/10/02 07:44:27
%%abc-edited-by Helmut Schaffrath
%%humdrum-veritas 677608789
%%humdrum-veritas-data 1443855052
%%continueall 1
%%barnumbers 0
L: 1/4
M: 3/4
K: C
E2G [I:setbarnb 1]| 
A3 | 
D2E | 
C/ A,/G,2 | 
G,A,C | 
E2G | 
E2D/ C/ | 
D3 | 
EDG | 
EDE | 
D>E C/ A,/ | 
G,3 | 
G,A,C | 
D2G | 
E2D/ E/ | 
C3 |]  



